!!!OTL: ICH TRUG IN MEINEM SCHOSSE
!!!ARE: Europa, Mitteleuropa, Deutschland, Kassel
!!!SCT: K2259
!!!YEM: Copyright 1995, estate of Helmut Schaffrath.
**kern
*ICvox
*Ivox
!! Mixed meters:  6/8; 2/4
*M6/8
*k[f#]
*G:
{8d
=1
4g
8g
8g
8f#
8g
=2
4a
8f#
4d}
{8d
=3
4g
8g
8g
8f#
8g
=4
4a
8f#
4d}
{8d
=5
4g
8g
8g
8f#
8g
=6
4a
8f#
4d}
{8d
=7
4g
8g
8g
8f#
8g
=8
4a
8f#
4.d}
=9
*M2/4
{4g
4b
=10
4.dd}
{8cc
=11
8b
8b
8a
8a
=12
4g
8r}
{8g
=13
8dd
8dd
8dd
8dd
=14
8ee
8ee
4ee}
=15
{8cc
8cc
8cc
8cc
=16
8dd
8dd
4dd}
=17
{4g
4b
=18
4.dd}
{8cc
=19
8b
8b
8a
8a
=20
4g
8r}
==
!!!AGN: Kinder - Lied, Reigen, Tanz, Nachahmungs - Spiel
!!!ONB: ESAC (Essen Associative Code) Database: KINDER
!!!AMT: irregular
!!!AIN: vox
!!!EED: Helmut Schaffrath
!!!EEV: 1.0
*-
